; G-Code generated by Simplify3D(TM) Version 2.1.0
; sty 18, 2023 at 1:09:57 AM
; Settings Summary
;   processName,Ender_3_second
;   applyToModels,uchwyt podstawy do zegara analogowego,uchwyt podstawy do zegara analogowego(2)
;   printMaterial,
;   printQuality,
;   extruderName,Primary Extruder
;   extruderToolheadNumber,0
;   extruderDiameter,0.35
;   extruderAutoWidth,0
;   extruderWidth,0.45
;   extrusionMultiplier,1.05
;   extruderUseRetract,1
;   extruderRetractionDistance,5
;   extruderExtraRestartDistance,0
;   extruderRetractionZLift,0.5
;   extruderRetractionSpeed,6000
;   extruderUseCoasting,1
;   extruderCoastingDistance,0.4
;   extruderUseWipe,0
;   extruderWipeDistance,0.2
;   primaryExtruder,0
;   layerHeight,0.12
;   topSolidLayers,3
;   bottomSolidLayers,3
;   perimeterOutlines,3
;   printPerimetersInsideOut,1
;   startPointOption,2
;   startPointOriginX,125
;   startPointOriginY,0
;   startPointOriginZ,255
;   sequentialIslands,1
;   spiralVaseMode,0
;   firstLayerHeightRatio,0.9
;   firstLayerUnderspeed,0.5
;   useRaft,0
;   raftLayers,2
;   raftOffset,2
;   raftInfill,65
;   disableRaftBaseLayers,0
;   useSkirt,1
;   skirtLayers,1
;   skirtOutlines,3
;   skirtOffset,0
;   infillExtruder,0
;   externalInfillPattern,Rectilinear
;   infillPercentage,30
;   outlineOverlapPercentage,15
;   minInfillLength,5
;   infillLayerInterval,1
;   randomInfillStartPoint,1
;   infillAngles,45,-45
;   generateSupport,1
;   supportExtruder,0
;   supportInfill,50
;   supportExtraInflation,0
;   supportLayerInterval,1
;   supportHorizontalPartOffset,0.25
;   supportUpperSeparationLayers,1
;   supportLowerSeparationLayers,1
;   supportGridSpacing,1
;   maxOverhangAngle,45
;   supportAngles,90
;   temperatureName,Primary Extruder,Heat Bed
;   temperatureNumber,0,1
;   temperatureSetpointCount,2,1
;   temperatureSetpointLayers,1,2,1
;   temperatureSetpointTemperatures,210,210,45
;   temperatureStabilizeAtStartup,1,1
;   temperatureHeatedBed,0,1
;   temperatureRelayBetweenLayers,0,0
;   temperatureRelayBetweenLoops,0,0
;   fanLayers,1,2
;   fanSpeeds,0,100
;   blipFanToFullPower,0
;   adjustSpeedForCooling,1
;   minSpeedLayerTime,15
;   minCoolingSpeedSlowdown,20
;   increaseFanForCooling,0
;   minFanLayerTime,6
;   maxCoolingFanSpeed,80
;   increaseFanForBridging,0
;   bridgingFanSpeed,80
;   use5D,1
;   relativeEdistances,0
;   allowEaxisZeroing,1
;   includeM10123,0
;   stickySupport,1
;   detectArcs,0
;   arcReplaceG2G3,0
;   arcRadialCompensation,1
;   gcodeXoffset,0
;   gcodeYoffset,0
;   gcodeZoffset,0
;   overrideMachineDefinition,1
;   machineTypeOverride,0
;   strokeXoverride,235
;   strokeYoverride,235
;   strokeZoverride,330
;   originOffsetXoverride,0
;   originOffsetYoverride,0
;   originOffsetZoverride,0
;   homeXdirOverride,-1
;   homeYdirOverride,-1
;   homeZdirOverride,-1
;   flipXoverride,1
;   flipYoverride,-1
;   flipZoverride,1
;   startingGcode,G28 ; home all axes
;   layerChangeGcode,
;   toolChangeGcode,
;   endingGcode,M104 S0 ; turn off extruder,M140 S0 ; turn off bed,M107 S0; turn off part cooling fans,G28 Y0; Home all axes,M84 ; disable motors
;   createX3G,0
;   celebration,0
;   celebrationSong,Take On Me
;   postProcessing,
;   defaultSpeed,9000
;   outlineUnderspeed,0.5
;   supportUnderspeed,0.8
;   rapidXYspeed,2100
;   rapidZspeed,1000
;   minBridgingArea,50
;   bridgingExtrusionMultiplier,1
;   bridgingSpeedMultiplier,1
;   filamentDiameter,1.75
;   useMinPrintHeight,0
;   minPrintHeight,0
;   useMaxPrintHeight,0
;   maxPrintHeight,0
;   overlapRemoval,0
;   overlapRemovalPercentage,0.3
;   useDiaphragm,0
;   diaphragmLayerInterval,20
;   robustSlicing,1
;   mergeAllIntoSolid,0
;   onlyRetractWhenCrossingOutline,0
;   retractBetweenLayers,1
;   useRetractionMinTravel,1
;   retractionMinTravel,2
;   useRetractionOozeRate,0
;   retractionOozeRate,100
;   onlyWipeOutlines,1
G90 ; use absolute coordinates
M82 ; absolute extrusion distances
G21 ; set units to millimeters
M106 S0
M140 S45
M190 S45
M104 S210 T0
M109 S210 T0
G28 ; home all axes
G92 E0
G1 E-5 F6000
G0 Z0.608 F1000
; layer 1, Z = 0.108
T0
; tool H0.12 W0.45
G0 X86.418 Y98.713 F2100
G0 Z0.108 F1000
G1 E0 F1800
G92 E0
G1 X87.132 Y98.713 E0.0168 F4500
G1 X87.606 Y98.638 E0.0282
G1 X88.087 Y98.638 E0.0395
G1 X88.497 Y98.575 E0.0493
G1 X88.988 Y98.575 E0.0608
G1 X89.4 Y98.522 E0.0706
G1 X89.914 Y98.522 E0.0827
G1 X90.296 Y98.478 E0.0918
G1 X90.786 Y98.478 E0.1034
G1 X91.201 Y98.442 E0.1132
G1 X91.707 Y98.442 E0.1251
G1 X92.099 Y98.414 E0.1344
G1 X92.622 Y98.414 E0.1467
G1 X92.992 Y98.394 E0.1554
G1 X94.755 Y98.375 E0.197
G1 X140.607 Y98.375 E1.2779
G1 X140.607 Y98.375 E1.2779
G1 X143.49 Y98.376 E1.3458
G1 X144.973 Y98.417 E1.3808
G1 X145.146 Y98.442 E1.3849
G1 X145.441 Y98.442 E1.3919
G1 X145.648 Y98.478 E1.3968
G1 X145.917 Y98.478 E1.4032
G1 X146.148 Y98.522 E1.4087
G1 X146.401 Y98.522 E1.4147
G1 X146.642 Y98.576 E1.4205
G1 X146.896 Y98.576 E1.4265
G1 X147.126 Y98.639 E1.4321
G1 X147.356 Y98.639 E1.4375
G1 X148.623 Y98.969 E1.4684
G1 X148.623 Y115.031 E1.847
G1 X147.356 Y115.362 E1.8779
G1 X147.126 Y115.362 E1.8833
G1 X146.896 Y115.425 E1.8889
G1 X146.642 Y115.425 E1.8949
G1 X146.401 Y115.478 E1.9008
G1 X146.148 Y115.478 E1.9067
G1 X145.917 Y115.522 E1.9123
G1 X145.647 Y115.522 E1.9186
G1 X145.441 Y115.558 E1.9236
G1 X145.172 Y115.558 E1.9299
G1 X144.959 Y115.584 E1.935
G1 X143.49 Y115.624 E1.9696
G1 X140.572 Y115.625 E2.0384
G1 X93.909 Y115.619 E3.1384
G1 X92.984 Y115.606 E3.1602
G1 X92.672 Y115.586 E3.1676
G1 X92.095 Y115.586 E3.1811
G1 X91.736 Y115.558 E3.1896
G1 X91.198 Y115.558 E3.2023
G1 X90.81 Y115.522 E3.2115
G1 X90.304 Y115.522 E3.2234
G1 X89.867 Y115.478 E3.2338
G1 X89.399 Y115.478 E3.2448
G1 X88.991 Y115.425 E3.2545
G1 X88.497 Y115.425 E3.2662
G1 X88.086 Y115.361 E3.276
G1 X87.607 Y115.361 E3.2873
G1 X87.13 Y115.287 E3.2986
G1 X86.418 Y115.287 E3.3154
G1 X86.418 Y115.2 E3.3175
G1 X86.397 Y115.2 E3.318
G1 X86.397 Y114.491 E3.3347
G1 X86.375 Y113.725 E3.3528
G1 X86.375 Y100.277 E3.6698
G1 X86.397 Y99.493 E3.6883
G1 X86.397 Y99.092 E3.6977
G0 X86.397 Y98.8 F4500
G0 X86.418 Y98.8 F4500
G0 X86.418 Y98.713 F4500
G92 E0
G1 E-5 F6000
G0 Z0.608 F1000
G0 X87.606 Y119.638 F2100
G0 Z0.108 F1000
G1 E0 F6000
G92 E0
G1 X88.087 Y119.638 E0.0113 F4500
G1 X88.497 Y119.575 E0.0211
G1 X88.988 Y119.575 E0.0327
G1 X89.4 Y119.522 E0.0425
G1 X89.914 Y119.522 E0.0546
G1 X90.296 Y119.478 E0.0637
G1 X90.786 Y119.478 E0.0752
G1 X91.201 Y119.442 E0.085
G1 X91.707 Y119.442 E0.097
G1 X92.099 Y119.414 E0.1062
G1 X92.622 Y119.414 E0.1186
G1 X92.992 Y119.394 E0.1273
G1 X94.755 Y119.375 E0.1689
G1 X140.607 Y119.375 E1.2497
G1 X140.607 Y119.375 E1.2497
G1 X143.49 Y119.376 E1.3177
G1 X144.973 Y119.417 E1.3527
G1 X145.146 Y119.442 E1.3568
G1 X145.441 Y119.442 E1.3637
G1 X145.648 Y119.478 E1.3687
G1 X145.917 Y119.478 E1.375
G1 X146.148 Y119.522 E1.3806
G1 X146.401 Y119.522 E1.3865
G1 X146.642 Y119.576 E1.3924
G1 X146.896 Y119.576 E1.3983
G1 X147.126 Y119.639 E1.404
G1 X147.356 Y119.639 E1.4094
G1 X148.623 Y119.969 E1.4403
G1 X148.623 Y136.031 E1.8189
G1 X147.356 Y136.362 E1.8497
G1 X147.129 Y136.362 E1.8551
G1 X146.892 Y136.425 E1.8609
G1 X146.642 Y136.425 E1.8668
G1 X146.401 Y136.478 E1.8726
G1 X146.148 Y136.478 E1.8786
G1 X145.917 Y136.522 E1.8841
G1 X145.647 Y136.522 E1.8905
G1 X145.441 Y136.558 E1.8954
G1 X145.172 Y136.558 E1.9017
G1 X144.959 Y136.584 E1.9068
G1 X143.49 Y136.624 E1.9414
G1 X140.572 Y136.625 E2.0102
G1 X93.909 Y136.619 E3.1102
G1 X92.984 Y136.606 E3.132
G1 X92.672 Y136.586 E3.1394
G1 X92.095 Y136.586 E3.153
G1 X91.736 Y136.558 E3.1615
G1 X91.198 Y136.558 E3.1742
G1 X90.81 Y136.522 E3.1833
G1 X90.304 Y136.522 E3.1953
G1 X89.867 Y136.478 E3.2056
G1 X89.399 Y136.478 E3.2167
G1 X88.991 Y136.425 E3.2264
G1 X88.497 Y136.425 E3.238
G1 X88.086 Y136.361 E3.2478
G1 X87.607 Y136.361 E3.2591
G1 X87.13 Y136.287 E3.2705
G1 X86.418 Y136.287 E3.2873
G1 X86.418 Y136.2 E3.2893
G1 X86.397 Y136.2 E3.2898
G1 X86.397 Y135.491 E3.3065
G1 X86.375 Y134.725 E3.3246
G1 X86.375 Y121.277 E3.6416
G1 X86.397 Y120.493 E3.6601
G1 X86.397 Y119.8 E3.6764
G1 X86.418 Y119.8 E3.6769
G1 X86.418 Y119.713 E3.679
G1 X87.132 Y119.713 E3.6958
G1 X87.211 Y119.7 E3.6977
G0 X87.606 Y119.638 F4500
G0 X87.642 Y120.088 F2100
G92 E0
G1 X88.121 Y120.088 E0.0113 F4500
G1 X88.531 Y120.025 E0.0211
G1 X89.017 Y120.025 E0.0325
G1 X89.429 Y119.972 E0.0423
G1 X89.94 Y119.972 E0.0544
G1 X90.322 Y119.928 E0.0634
G1 X90.805 Y119.928 E0.0748
G1 X91.221 Y119.892 E0.0847
G1 X91.723 Y119.892 E0.0965
G1 X92.115 Y119.864 E0.1058
G1 X92.634 Y119.864 E0.118
G1 X93.006 Y119.844 E0.1268
G1 X94.758 Y119.825 E0.1681
G1 X140.593 Y119.825 E1.2486
G1 X140.593 Y119.825 E1.2486
G1 X143.484 Y119.826 E1.3167
G1 X144.934 Y119.866 E1.3509
G1 X145.114 Y119.892 E1.3552
G1 X145.402 Y119.892 E1.362
G1 X145.609 Y119.928 E1.3669
G1 X145.874 Y119.928 E1.3732
G1 X146.105 Y119.972 E1.3787
G1 X146.352 Y119.972 E1.3845
G1 X146.593 Y120.026 E1.3904
G1 X146.836 Y120.026 E1.3961
G1 X147.066 Y120.089 E1.4017
G1 X147.299 Y120.089 E1.4072
G1 X148.173 Y120.317 E1.4285
G1 X148.173 Y135.683 E1.7907
G1 X147.299 Y135.912 E1.8121
G1 X147.07 Y135.912 E1.8174
G1 X146.833 Y135.975 E1.8232
G1 X146.593 Y135.975 E1.8289
G1 X146.351 Y136.028 E1.8347
G1 X146.105 Y136.028 E1.8405
G1 X145.875 Y136.072 E1.8461
G1 X145.608 Y136.072 E1.8523
G1 X145.402 Y136.108 E1.8573
G1 X145.145 Y136.108 E1.8633
G1 X144.926 Y136.135 E1.8685
G1 X143.484 Y136.174 E1.9025
G1 X140.572 Y136.175 E1.9712
G1 X93.912 Y136.169 E3.0711
G1 X93.002 Y136.156 E3.0926
G1 X92.686 Y136.136 E3.1
G1 X92.113 Y136.136 E3.1135
G1 X91.753 Y136.108 E3.122
G1 X91.219 Y136.108 E3.1346
G1 X90.831 Y136.072 E3.1438
G1 X90.327 Y136.072 E3.1557
G1 X89.89 Y136.028 E3.166
G1 X89.428 Y136.028 E3.1769
G1 X89.02 Y135.975 E3.1866
G1 X88.531 Y135.975 E3.1982
G1 X88.12 Y135.911 E3.208
G1 X87.642 Y135.911 E3.2192
G1 X87.165 Y135.837 E3.2306
G1 X86.868 Y135.837 E3.2376
G1 X86.868 Y135.75 E3.2397
G1 X86.847 Y135.75 E3.2402
G1 X86.847 Y135.485 E3.2464
G1 X86.825 Y134.719 E3.2645
G1 X86.825 Y121.283 E3.5812
G1 X86.847 Y120.499 E3.5997
G1 X86.847 Y120.25 E3.6056
G1 X86.868 Y120.25 E3.6061
G1 X86.868 Y120.163 E3.6081
G1 X87.167 Y120.163 E3.6152
G1 X87.246 Y120.15 E3.6171
G0 X87.642 Y120.088 F4500
G92 E0
G1 E-5 F6000
G0 Z0.608 F1000
G0 X87.642 Y114.911 F2100
G0 Z0.108 F1000
G1 E0 F6000
G92 E0
G1 X87.165 Y114.837 E0.0114 F4500
G1 X86.868 Y114.837 E0.0184
G1 X86.868 Y114.75 E0.0204
G1 X86.847 Y114.75 E0.0209
G1 X86.847 Y114.485 E0.0272
G1 X86.825 Y113.719 E0.0453
G1 X86.825 Y100.283 E0.362
G1 X86.847 Y99.499 E0.3805
G1 X86.847 Y99.25 E0.3863
G1 X86.868 Y99.25 E0.3868
G1 X86.868 Y99.163 E0.3889
G1 X87.167 Y99.163 E0.3959
G1 X87.642 Y99.088 E0.4073
G1 X88.121 Y99.088 E0.4186
G1 X88.531 Y99.025 E0.4283
G1 X89.017 Y99.025 E0.4398
G1 X89.429 Y98.972 E0.4496
G1 X89.94 Y98.972 E0.4616
G1 X90.322 Y98.928 E0.4707
G1 X90.805 Y98.928 E0.4821
G1 X91.221 Y98.892 E0.4919
G1 X91.723 Y98.892 E0.5038
G1 X92.115 Y98.864 E0.513
G1 X92.634 Y98.864 E0.5253
G1 X93.006 Y98.844 E0.534
G1 X94.758 Y98.825 E0.5753
G1 X140.593 Y98.825 E1.6558
G1 X140.593 Y98.825 E1.6558
G1 X143.484 Y98.826 E1.724
G1 X144.934 Y98.866 E1.7582
G1 X145.114 Y98.892 E1.7624
G1 X145.402 Y98.892 E1.7692
G1 X145.609 Y98.928 E1.7742
G1 X145.874 Y98.928 E1.7804
G1 X146.105 Y98.972 E1.786
G1 X146.352 Y98.972 E1.7918
G1 X146.593 Y99.026 E1.7976
G1 X146.836 Y99.026 E1.8033
G1 X147.066 Y99.089 E1.809
G1 X147.299 Y99.089 E1.8145
G1 X148.173 Y99.317 E1.8358
G1 X148.173 Y114.683 E2.198
G1 X147.299 Y114.912 E2.2193
G1 X147.066 Y114.912 E2.2248
G1 X146.836 Y114.975 E2.2304
G1 X146.593 Y114.975 E2.2361
G1 X146.351 Y115.028 E2.242
G1 X146.105 Y115.028 E2.2478
G1 X145.875 Y115.072 E2.2533
G1 X145.608 Y115.072 E2.2596
G1 X145.402 Y115.108 E2.2645
G1 X145.145 Y115.108 E2.2706
G1 X144.926 Y115.135 E2.2758
G1 X143.484 Y115.174 E2.3098
G1 X140.572 Y115.175 E2.3784
G1 X93.912 Y115.169 E3.4784
G1 X93.002 Y115.156 E3.4998
G1 X92.686 Y115.136 E3.5073
G1 X92.113 Y115.136 E3.5208
G1 X91.753 Y115.108 E3.5293
G1 X91.219 Y115.108 E3.5419
G1 X90.831 Y115.072 E3.5511
G1 X90.327 Y115.072 E3.563
G1 X89.89 Y115.028 E3.5733
G1 X89.428 Y115.028 E3.5842
G1 X89.02 Y114.975 E3.5939
G1 X88.531 Y114.975 E3.6054
G1 X88.12 Y114.911 E3.6152
G1 X88.042 Y114.911 E3.6171
G0 X87.642 Y114.911 F4500
G0 X87.677 Y114.461 F2100
G92 E0
G1 X87.347 Y114.41 E0.0079 F4500
G1 X87.347 Y114.387 E0.0084
G1 X87.318 Y114.387 E0.0091
G1 X87.318 Y114.3 E0.0111
G1 X87.297 Y114.3 E0.0116
G1 X87.297 Y114.199 E0.014
G1 X87.289 Y114.199 E0.0142
G1 X87.275 Y113.712 E0.0257
G1 X87.275 Y100.289 E0.3421
G1 X87.289 Y99.801 E0.3536
G1 X87.297 Y99.801 E0.3538
G1 X87.297 Y99.7 E0.3562
G1 X87.318 Y99.7 E0.3567
G1 X87.318 Y99.613 E0.3588
G1 X87.347 Y99.613 E0.3595
G1 X87.347 Y99.59 E0.36
G1 X87.677 Y99.538 E0.3678
G1 X88.156 Y99.538 E0.3791
G1 X88.566 Y99.475 E0.3889
G1 X89.046 Y99.475 E0.4002
G1 X89.458 Y99.422 E0.41
G1 X89.966 Y99.422 E0.422
G1 X90.348 Y99.378 E0.4311
G1 X90.825 Y99.378 E0.4423
G1 X91.24 Y99.342 E0.4521
G1 X91.739 Y99.342 E0.4639
G1 X92.131 Y99.314 E0.4732
G1 X92.646 Y99.314 E0.4853
G1 X93.021 Y99.294 E0.4941
G1 X94.76 Y99.275 E0.5352
G1 X140.579 Y99.275 E1.6152
G1 X140.579 Y99.275 E1.6152
G1 X143.478 Y99.276 E1.6836
G1 X144.895 Y99.315 E1.717
G1 X145.081 Y99.342 E1.7214
G1 X145.363 Y99.342 E1.7281
G1 X145.57 Y99.378 E1.733
G1 X145.832 Y99.378 E1.7392
G1 X146.063 Y99.422 E1.7447
G1 X146.302 Y99.422 E1.7504
G1 X146.544 Y99.476 E1.7562
G1 X146.775 Y99.476 E1.7617
G1 X147.005 Y99.539 E1.7673
G1 X147.241 Y99.539 E1.7729
G1 X147.723 Y99.665 E1.7846
G1 X147.723 Y114.336 E2.1305
G1 X147.241 Y114.462 E2.1422
G1 X147.005 Y114.462 E2.1478
G1 X146.775 Y114.525 E2.1534
G1 X146.544 Y114.525 E2.1588
G1 X146.302 Y114.578 E2.1647
G1 X146.062 Y114.578 E2.1703
G1 X145.832 Y114.622 E2.1759
G1 X145.569 Y114.622 E2.1821
G1 X145.363 Y114.658 E2.187
G1 X145.118 Y114.658 E2.1928
G1 X144.893 Y114.686 E2.1981
G1 X143.478 Y114.724 E2.2315
G1 X140.572 Y114.725 E2.3
G1 X93.915 Y114.719 E3.3998
G1 X93.019 Y114.706 E3.421
G1 X92.7 Y114.686 E3.4285
G1 X92.13 Y114.686 E3.4419
G1 X91.771 Y114.658 E3.4504
G1 X91.24 Y114.658 E3.4629
G1 X90.852 Y114.622 E3.4721
G1 X90.35 Y114.622 E3.484
G1 X89.913 Y114.578 E3.4943
G1 X89.458 Y114.578 E3.505
G1 X89.049 Y114.525 E3.5147
G1 X88.566 Y114.525 E3.5261
G1 X88.155 Y114.461 E3.5359
G1 X88.077 Y114.461 E3.5378
G0 X87.677 Y114.461 F4500
G92 E0
G1 E-5 F6000
G0 Z0.608 F1000
G0 X87.677 Y120.538 F2100
G0 Z0.108 F1000
G1 E0 F6000
G92 E0
G1 X88.156 Y120.538 E0.0113 F4500
G1 X88.566 Y120.475 E0.0211
G1 X89.046 Y120.475 E0.0324
G1 X89.458 Y120.422 E0.0422
G1 X89.966 Y120.422 E0.0541
G1 X90.348 Y120.378 E0.0632
G1 X90.825 Y120.378 E0.0745
G1 X91.24 Y120.342 E0.0843
G1 X91.739 Y120.342 E0.0961
G1 X92.131 Y120.314 E0.1053
G1 X92.646 Y120.314 E0.1175
G1 X93.021 Y120.294 E0.1263
G1 X94.76 Y120.275 E0.1673
G1 X140.579 Y120.275 E1.2474
G1 X140.579 Y120.275 E1.2474
G1 X143.478 Y120.276 E1.3157
G1 X144.895 Y120.315 E1.3492
G1 X145.081 Y120.342 E1.3536
G1 X145.363 Y120.342 E1.3602
G1 X145.57 Y120.378 E1.3652
G1 X145.832 Y120.378 E1.3714
G1 X146.063 Y120.422 E1.3769
G1 X146.302 Y120.422 E1.3825
G1 X146.544 Y120.476 E1.3884
G1 X146.775 Y120.476 E1.3938
G1 X147.005 Y120.539 E1.3995
G1 X147.241 Y120.539 E1.405
G1 X147.723 Y120.665 E1.4168
G1 X147.723 Y135.336 E1.7626
G1 X147.241 Y135.462 E1.7744
G1 X147.011 Y135.462 E1.7798
G1 X146.774 Y135.525 E1.7856
G1 X146.544 Y135.525 E1.791
G1 X146.302 Y135.578 E1.7968
G1 X146.062 Y135.578 E1.8025
