; G-Code generated by Simplify3D(TM) Version 2.1.0
; sty 17, 2023 at 10:05:38 PM
; Settings Summary
;   processName,Ender_3_second
;   applyToModels,uchwyt 4 do zegara analogowego
;   printMaterial,
;   printQuality,
;   extruderName,Primary Extruder
;   extruderToolheadNumber,0
;   extruderDiameter,0.35
;   extruderAutoWidth,0
;   extruderWidth,0.45
;   extrusionMultiplier,1.05
;   extruderUseRetract,1
;   extruderRetractionDistance,5
;   extruderExtraRestartDistance,0
;   extruderRetractionZLift,0.5
;   extruderRetractionSpeed,6000
;   extruderUseCoasting,1
;   extruderCoastingDistance,0.4
;   extruderUseWipe,0
;   extruderWipeDistance,0.2
;   primaryExtruder,0
;   layerHeight,0.12
;   topSolidLayers,3
;   bottomSolidLayers,3
;   perimeterOutlines,3
;   printPerimetersInsideOut,1
;   startPointOption,2
;   startPointOriginX,125
;   startPointOriginY,0
;   startPointOriginZ,255
;   sequentialIslands,1
;   spiralVaseMode,0
;   firstLayerHeightRatio,0.9
;   firstLayerUnderspeed,0.5
;   useRaft,0
;   raftLayers,2
;   raftOffset,2
;   raftInfill,65
;   disableRaftBaseLayers,0
;   useSkirt,1
;   skirtLayers,1
;   skirtOutlines,3
;   skirtOffset,0
;   infillExtruder,0
;   externalInfillPattern,Rectilinear
;   infillPercentage,100
;   outlineOverlapPercentage,15
;   minInfillLength,5
;   infillLayerInterval,1
;   randomInfillStartPoint,1
;   infillAngles,45,-45
;   generateSupport,1
;   supportExtruder,0
;   supportInfill,50
;   supportExtraInflation,0
;   supportLayerInterval,1
;   supportHorizontalPartOffset,0.25
;   supportUpperSeparationLayers,1
;   supportLowerSeparationLayers,1
;   supportGridSpacing,1
;   maxOverhangAngle,45
;   supportAngles,90
;   temperatureName,Primary Extruder,Heat Bed
;   temperatureNumber,0,1
;   temperatureSetpointCount,2,1
;   temperatureSetpointLayers,1,2,1
;   temperatureSetpointTemperatures,210,210,45
;   temperatureStabilizeAtStartup,1,1
;   temperatureHeatedBed,0,1
;   temperatureRelayBetweenLayers,0,0
;   temperatureRelayBetweenLoops,0,0
;   fanLayers,1,2
;   fanSpeeds,0,100
;   blipFanToFullPower,0
;   adjustSpeedForCooling,1
;   minSpeedLayerTime,15
;   minCoolingSpeedSlowdown,20
;   increaseFanForCooling,0
;   minFanLayerTime,6
;   maxCoolingFanSpeed,80
;   increaseFanForBridging,0
;   bridgingFanSpeed,80
;   use5D,1
;   relativeEdistances,0
;   allowEaxisZeroing,1
;   includeM10123,0
;   stickySupport,1
;   detectArcs,0
;   arcReplaceG2G3,0
;   arcRadialCompensation,1
;   gcodeXoffset,0
;   gcodeYoffset,0
;   gcodeZoffset,0
;   overrideMachineDefinition,1
;   machineTypeOverride,0
;   strokeXoverride,235
;   strokeYoverride,235
;   strokeZoverride,330
;   originOffsetXoverride,0
;   originOffsetYoverride,0
;   originOffsetZoverride,0
;   homeXdirOverride,-1
;   homeYdirOverride,-1
;   homeZdirOverride,-1
;   flipXoverride,1
;   flipYoverride,-1
;   flipZoverride,1
;   startingGcode,G28 ; home all axes
;   layerChangeGcode,
;   toolChangeGcode,
;   endingGcode,M104 S0 ; turn off extruder,M140 S0 ; turn off bed,M107 S0; turn off part cooling fans,G28 Y0; Home all axes,M84 ; disable motors
;   createX3G,0
;   celebration,0
;   celebrationSong,Take On Me
;   postProcessing,
;   defaultSpeed,9000
;   outlineUnderspeed,0.5
;   supportUnderspeed,0.8
;   rapidXYspeed,2100
;   rapidZspeed,1000
;   minBridgingArea,50
;   bridgingExtrusionMultiplier,1
;   bridgingSpeedMultiplier,1
;   filamentDiameter,1.75
;   useMinPrintHeight,0
;   minPrintHeight,0
;   useMaxPrintHeight,0
;   maxPrintHeight,0
;   overlapRemoval,0
;   overlapRemovalPercentage,0.3
;   useDiaphragm,0
;   diaphragmLayerInterval,20
;   robustSlicing,1
;   mergeAllIntoSolid,0
;   onlyRetractWhenCrossingOutline,0
;   retractBetweenLayers,1
;   useRetractionMinTravel,1
;   retractionMinTravel,2
;   useRetractionOozeRate,0
;   retractionOozeRate,100
;   onlyWipeOutlines,1
G90 ; use absolute coordinates
M82 ; absolute extrusion distances
G21 ; set units to millimeters
M106 S0
M140 S45
M190 S45
M104 S210 T0
M109 S210 T0
G28 ; home all axes
G92 E0
G1 E-5 F6000
G0 Z0.608 F1000
; layer 1, Z = 0.108
T0
; tool H0.12 W0.45
G0 X93.875 Y109.36 F2100
G0 Z0.108 F1000
G1 E0 F1800
G92 E0
G1 X141.125 Y109.36 E1.1138 F4500
G1 X141.125 Y125.64 E1.4976
G1 X93.875 Y125.64 E2.6114
G1 X93.875 Y109.76 E2.9857
G0 X93.875 Y109.36 F4500
G0 X94.325 Y109.81 F2100
G92 E0
G1 X140.675 Y109.81 E1.0926 F4500
G1 X140.675 Y125.19 E1.4552
G1 X94.325 Y125.19 E2.5478
G1 X94.325 Y110.21 E2.9009
G0 X94.325 Y109.81 F4500
G0 X94.775 Y110.26 F2100
G92 E0
G1 X140.225 Y110.26 E1.0714 F4500
G1 X140.225 Y124.74 E1.4127
G1 X94.775 Y124.74 E2.4841
G1 X94.775 Y110.66 E2.816
G0 X94.775 Y110.26 F4500
G0 X96.125 Y111.61 F2100
G92 E0
G1 X138.875 Y111.61 E1.0078 F3750
G1 X138.875 Y123.39 E1.2854
G1 X127.125 Y123.39 E1.5624
G1 X127.125 Y111.637 E1.8395
G1 X103.875 Y111.637 E2.3875
G1 X103.875 Y123.39 E2.6646
G1 X96.125 Y123.39 E2.8473
G1 X96.125 Y112.01 E3.1155
G0 X96.125 Y111.61 F3750
G0 X95.675 Y111.16 F2100
G92 E0
G1 X139.325 Y111.16 E1.029 F3000
G1 X139.325 Y123.84 E1.3279
G1 X95.675 Y123.84 E2.3568
G1 X95.675 Y111.56 E2.6463
G0 X95.675 Y111.16 F3000
G92 E0
G1 E-5 F6000
G0 Z0.608 F1000
G0 X104.325 Y112.087 F2100
G0 Z0.108 F1000
G1 E0 F6000
G92 E0
G1 X104.325 Y123.437 E0.2676 F3000
G1 X126.675 Y123.437 E0.7944
G1 X126.675 Y112.087 E1.062
G1 X104.725 Y112.087 E1.5794
G0 X104.325 Y112.087 F3000
G92 E0
G1 E-5 F6000
G0 Z0.608 F1000
G0 X95.225 Y110.71 F2100
G0 Z0.108 F1000
G1 E0 F6000
G92 E0
G1 X139.775 Y110.71 E1.0502 F2250
G1 X139.775 Y124.29 E1.3703
G1 X95.225 Y124.29 E2.4205
G1 X95.225 Y111.11 E2.7311
G0 X95.225 Y110.71 F2250
G92 E0
G1 E-5 F6000
G0 Z0.608 F1000
G0 X104.775 Y112.537 F2100
G0 Z0.108 F1000
G1 E0 F6000
G92 E0
G1 X104.775 Y122.987 E0.2463 F2250
G1 X126.225 Y122.987 E0.752
G1 X126.225 Y112.537 E0.9983
G1 X105.175 Y112.537 E1.4945
G0 X104.775 Y112.537 F2250
G92 E0
G1 E-5 F6000
G0 Z0.608 F1000
G0 X96.507 Y112.16 F2100
G0 Z0.108 F1000
G1 E0 F6000
G92 E0
G1 X96.675 Y111.993 E0.0056 F4500
G1 X97.311 Y111.993 E0.0206
G1 X96.507 Y112.796 E0.0474
G1 X96.507 Y113.433 E0.0624
G1 X97.947 Y111.993 E0.1104
G1 X98.584 Y111.993 E0.1254
G1 X96.507 Y114.069 E0.1946
G1 X96.507 Y114.706 E0.2096
G1 X99.22 Y111.993 E0.3
G1 X99.857 Y111.993 E0.315
G1 X96.507 Y115.342 E0.4267
G1 X96.507 Y115.978 E0.4417
G1 X100.493 Y111.993 E0.5746
G1 X101.129 Y111.993 E0.5896
G1 X96.507 Y116.615 E0.7436
G1 X96.507 Y117.251 E0.7587
G1 X101.766 Y111.993 E0.934
G1 X102.402 Y111.993 E0.949
G1 X96.507 Y117.888 E1.1455
G1 X96.507 Y118.524 E1.1605
G1 X103.039 Y111.993 E1.3782
G1 X103.493 Y111.993 E1.3889
G1 X103.493 Y112.175 E1.3932
G1 X96.507 Y119.16 E1.6261
G1 X96.507 Y119.797 E1.6411
G1 X103.493 Y112.812 E1.8739
G1 X103.493 Y113.448 E1.8889
G1 X96.507 Y120.433 E2.1218
G1 X96.507 Y121.07 E2.1368
G1 X103.493 Y114.085 E2.3697
G1 X103.493 Y114.721 E2.3847
G1 X96.507 Y121.706 E2.6175
G1 X96.507 Y122.342 E2.6325
G1 X103.493 Y115.357 E2.8654
G1 X103.493 Y115.994 E2.8804
G1 X96.507 Y122.979 E3.1133
G1 X96.507 Y123.007 E3.1139
G1 X97.116 Y123.007 E3.1283
G1 X103.493 Y116.63 E3.3408
G1 X103.493 Y117.267 E3.3558
G1 X97.752 Y123.007 E3.5472
G1 X98.388 Y123.007 E3.5622
G1 X103.493 Y117.903 E3.7324
G1 X103.493 Y118.539 E3.7474
G1 X99.025 Y123.007 E3.8963
G1 X99.661 Y123.007 E3.9113
G1 X103.493 Y119.176 E4.0391
G1 X103.493 Y119.812 E4.0541
G1 X100.298 Y123.007 E4.1606
G1 X100.934 Y123.007 E4.1756
G1 X103.493 Y120.449 E4.2609
G1 X103.493 Y121.085 E4.2759
G1 X101.57 Y123.007 E4.34
G1 X102.207 Y123.007 E4.355
G1 X103.493 Y121.721 E4.3978
G1 X103.493 Y122.358 E4.4128
G1 X102.843 Y123.007 E4.4345
G1 X103.124 Y123.007 E4.4411
G0 X103.479 Y123.007 F4500
G0 X103.493 Y122.994 F4500
G0 X103.493 Y123.007 F4500
G0 X103.479 Y123.007 F4500
G92 E0
G1 E-5 F6000
G0 Z0.608 F1000
G0 X127.507 Y112.343 F2100
G0 Z0.108 F1000
G1 E0 F6000
G92 E0
G1 X127.858 Y111.993 E0.0117 F4500
G1 X128.495 Y111.993 E0.0267
G1 X127.507 Y112.98 E0.0596
G1 X127.507 Y113.616 E0.0746
G1 X129.131 Y111.993 E0.1287
G1 X129.767 Y111.993 E0.1437
G1 X127.507 Y114.253 E0.2191
G1 X127.507 Y114.889 E0.2341
G1 X130.404 Y111.993 E0.3306
G1 X131.04 Y111.993 E0.3456
G1 X127.507 Y115.525 E0.4634
G1 X127.507 Y116.162 E0.4784
G1 X131.677 Y111.993 E0.6174
G1 X132.313 Y111.993 E0.6324
G1 X127.507 Y116.798 E0.7926
G1 X127.507 Y117.435 E0.8076
G1 X132.949 Y111.993 E0.989
G1 X133.586 Y111.993 E1.004
G1 X127.507 Y118.071 E1.2066
G1 X127.507 Y118.707 E1.2216
G1 X134.222 Y111.993 E1.4455
G1 X134.858 Y111.993 E1.4605
G1 X127.507 Y119.344 E1.7055
G1 X127.507 Y119.98 E1.7205
G1 X135.495 Y111.993 E1.9868
G1 X136.131 Y111.993 E2.0018
G1 X127.507 Y120.617 E2.2893
G1 X127.507 Y121.253 E2.3043
G1 X136.768 Y111.993 E2.613
G1 X137.404 Y111.993 E2.628
G1 X127.507 Y121.889 E2.9579
G1 X127.507 Y122.526 E2.9729
G1 X138.04 Y111.993 E3.3241
G1 X138.493 Y111.993 E3.3347
G1 X138.493 Y112.177 E3.3391
G1 X127.663 Y123.007 E3.7001
G1 X128.299 Y123.007 E3.7151
G1 X138.493 Y112.814 E4.055
G1 X138.493 Y113.45 E4.07
G1 X128.935 Y123.007 E4.3886
G1 X129.572 Y123.007 E4.4036
G1 X138.493 Y114.086 E4.701
G1 X138.493 Y114.723 E4.716
G1 X130.208 Y123.007 E4.9922
G1 X130.845 Y123.007 E5.0072
G1 X138.493 Y115.359 E5.2621
G1 X138.493 Y115.996 E5.2771
G1 X131.481 Y123.007 E5.5109
G1 X132.117 Y123.007 E5.5259
G1 X138.493 Y116.632 E5.7384
G1 X138.493 Y117.268 E5.7534
G1 X132.754 Y123.007 E5.9447
G1 X133.39 Y123.007 E5.9597
G1 X138.493 Y117.905 E6.1298
G1 X138.493 Y118.541 E6.1448
G1 X134.026 Y123.007 E6.2937
G1 X134.663 Y123.007 E6.3087
G1 X138.493 Y119.178 E6.4364
G1 X138.493 Y119.814 E6.4514
G1 X135.299 Y123.007 E6.5578
G1 X135.936 Y123.007 E6.5728
G1 X138.493 Y120.45 E6.6581
G1 X138.493 Y121.087 E6.6731
G1 X136.572 Y123.007 E6.7371
G1 X137.208 Y123.007 E6.7521
G1 X138.493 Y121.723 E6.7949
G1 X138.493 Y122.36 E6.8099
G1 X137.845 Y123.007 E6.8315
G1 X138.12 Y123.007 E6.838
G0 X138.481 Y123.007 F4500
G0 X138.493 Y122.996 F4500
G0 X138.493 Y123.007 F4500
G0 X138.481 Y123.007 F4500
G92 E0
G1 E-5 F6000
G0 Z0.728 F1000
; layer 2, Z = 0.228
M104 S210 T0
M106 S255
G0 X138.875 Y123.271 F2100
G0 Z0.228 F1000
G1 E0 F6000
G92 E0
G1 X127.125 Y123.271 E0.277 F5963
G1 X127.125 Y111.729 E0.549
G1 X138.875 Y111.729 E0.826
G1 X138.875 Y122.871 E1.0887
G0 X138.875 Y123.271 F5963
G92 E0
G1 E-5 F6000
G0 Z0.728 F1000
G0 X103.875 Y123.271 F2100
G0 Z0.228 F1000
G1 E0 F6000
G92 E0
G1 X96.125 Y123.271 E0.1827 F5963
G1 X96.125 Y111.729 E0.4548
G1 X103.875 Y111.729 E0.6374
G1 X103.875 Y122.871 E0.9001
G0 X103.875 Y123.271 F5963
G92 E0
G1 E-5 F6000
G0 Z0.728 F1000
G0 X139.325 Y123.721 F2100
G0 Z0.228 F1000
G1 E0 F6000
G92 E0
G1 X95.675 Y123.721 E1.029 F4770
G1 X95.675 Y111.279 E1.3222
G1 X139.325 Y111.279 E2.3512
G1 X139.325 Y123.321 E2.6351
G0 X139.325 Y123.721 F4770
G92 E0
G1 E-5 F6000
G0 Z0.728 F1000
G0 X126.675 Y123.437 F2100
G0 Z0.228 F1000
G1 E0 F6000
G92 E0
G1 X126.675 Y112.087 E0.2676 F4770
G1 X104.325 Y112.087 E0.7944
G1 X104.325 Y123.437 E1.062
G1 X126.275 Y123.437 E1.5794
G0 X126.675 Y123.437 F4770
G92 E0
G1 E-5 F6000
G0 Z0.728 F1000
G0 X139.775 Y124.171 F2100
G0 Z0.228 F1000
G1 E0 F6000
G92 E0
G1 X95.225 Y124.171 E1.0502 F3578
G1 X95.225 Y110.829 E1.3647
G1 X139.775 Y110.829 E2.4149
G1 X139.775 Y123.771 E2.7199
G0 X139.775 Y124.171 F3578
G92 E0
G1 E-5 F6000
G0 Z0.728 F1000
G0 X126.225 Y122.987 F2100
G0 Z0.228 F1000
G1 E0 F6000
G92 E0
G1 X126.225 Y112.537 E0.2463 F3578
G1 X104.775 Y112.537 E0.752
G1 X104.775 Y122.987 E0.9983
G1 X125.825 Y122.987 E1.4945
G0 X126.225 Y122.987 F3578
G0 X127.507 Y122.813 F2100
G92 E0
G1 X127.507 Y122.888 E0.0018 F7156
G1 X127.583 Y122.888 E0.0036
G1 X127.507 Y122.813 E0.0061
G1 X127.507 Y122.176 E0.0211
G1 X128.219 Y122.888 E0.0448
G1 X128.856 Y122.888 E0.0598
G1 X127.507 Y121.54 E0.1048
G1 X127.507 Y120.903 E0.1198
G1 X129.492 Y122.888 E0.1859
G1 X130.129 Y122.888 E0.2009
G1 X127.507 Y120.267 E0.2883
G1 X127.507 Y119.631 E0.3033
G1 X130.765 Y122.888 E0.4119
G1 X131.401 Y122.888 E0.4269
G1 X127.507 Y118.994 E0.5567
G1 X127.507 Y118.358 E0.5717
G1 X132.038 Y122.888 E0.7228
G1 X132.674 Y122.888 E0.7378
G1 X127.507 Y117.721 E0.91
G1 X127.507 Y117.085 E0.925
G1 X133.311 Y122.888 E1.1185
G1 X133.947 Y122.888 E1.1335
G1 X127.507 Y116.449 E1.3482
G1 X127.507 Y115.812 E1.3632
G1 X134.583 Y122.888 E1.599
G1 X135.22 Y122.888 E1.614
G1 X127.507 Y115.176 E1.8712
G1 X127.507 Y114.539 E1.8862
G1 X135.856 Y122.888 E2.1645
G1 X136.493 Y122.888 E2.1795
G1 X127.507 Y113.903 E2.479
G1 X127.507 Y113.267 E2.494
G1 X137.129 Y122.888 E2.8148
G1 X137.765 Y122.888 E2.8298
G1 X127.507 Y112.63 E3.1718
G1 X127.507 Y112.112 E3.184
G1 X127.626 Y112.112 E3.1868
G1 X138.402 Y122.888 E3.546
G1 X138.493 Y122.888 E3.5481
G1 X138.493 Y122.342 E3.561
G1 X128.262 Y112.112 E3.9021
G1 X128.898 Y112.112 E3.9171
G1 X138.493 Y121.706 E4.2369
G1 X138.493 Y121.07 E4.2519
G1 X129.535 Y112.112 E4.5505
G1 X130.171 Y112.112 E4.5655
G1 X138.493 Y120.433 E4.8429
G1 X138.493 Y119.797 E4.858
G1 X130.808 Y112.112 E5.1141
G1 X131.444 Y112.112 E5.1291
G1 X138.493 Y119.16 E5.3641
G1 X138.493 Y118.524 E5.3791
G1 X132.08 Y112.112 E5.5929
G1 X132.717 Y112.112 E5.6079
G1 X138.493 Y117.888 E5.8004
G1 X138.493 Y117.251 E5.8154
G1 X133.353 Y112.112 E5.9868
G1 X133.99 Y112.112 E6.0018
G1 X138.493 Y116.615 E6.1519
G1 X138.493 Y115.978 E6.1669
G1 X134.626 Y112.112 E6.2958
G1 X135.262 Y112.112 E6.3108
G1 X138.493 Y115.342 E6.4185
G1 X138.493 Y114.706 E6.4335
G1 X135.899 Y112.112 E6.5199
G1 X136.535 Y112.112 E6.5349
G1 X138.493 Y114.069 E6.6002
G1 X138.493 Y113.433 E6.6152
G1 X137.172 Y112.112 E6.6592
G1 X137.808 Y112.112 E6.6742
G1 X138.493 Y112.796 E6.6971
G1 X138.492 Y112.492 E6.7042
G0 X138.493 Y112.16 F7156
G0 X138.444 Y112.112 F7156
G92 E0
G1 E-5 F6000
G0 Z0.728 F1000
G0 X103.443 Y112.112 F2100
G0 Z0.228 F1000
G1 E0 F6000
G92 E0
G1 X103.493 Y112.162 E0.0017 F7156
G1 X103.493 Y112.798 E0.0167
G1 X102.806 Y112.112 E0.0395
G1 X102.17 Y112.112 E0.0545
G1 X103.493 Y113.435 E0.0986
G1 X103.493 Y114.071 E0.1136
G1 X101.533 Y112.112 E0.179
G1 X100.897 Y112.112 E0.194
G1 X103.493 Y114.707 E0.2805
G1 X103.493 Y115.344 E0.2955
G1 X100.261 Y112.112 E0.4032
G1 X99.624 Y112.112 E0.4182
G1 X103.493 Y115.98 E0.5472
G1 X103.493 Y116.617 E0.5622
G1 X98.988 Y112.112 E0.7124
G1 X98.351 Y112.112 E0.7274
G1 X103.493 Y117.253 E0.8988
G1 X103.493 Y117.889 E0.9138
G1 X97.715 Y112.112 E1.1064
G1 X97.079 Y112.112 E1.1214
G1 X103.493 Y118.526 E1.3352
G1 X103.493 Y119.162 E1.3502
G1 X96.507 Y112.177 E1.5831
G1 X96.507 Y112.814 E1.5981
G1 X103.493 Y119.799 E1.8309
G1 X103.493 Y120.435 E1.8459
G1 X96.507 Y113.45 E2.0788
G1 X96.507 Y114.086 E2.0938
G1 X103.493 Y121.071 E2.3266
G1 X103.493 Y121.708 E2.3416
G1 X96.507 Y114.723 E2.5745
G1 X96.507 Y115.359 E2.5895
G1 X103.493 Y122.344 E2.8224
G1 X103.493 Y122.888 E2.8352
G1 X103.4 Y122.888 E2.8374
G1 X96.507 Y115.996 E3.0672
G1 X96.507 Y116.632 E3.0822
G1 X102.764 Y122.888 E3.2907
G1 X102.127 Y122.888 E3.3057
G1 X96.507 Y117.268 E3.4931
G1 X96.507 Y117.905 E3.5081
G1 X101.491 Y122.888 E3.6742
G1 X100.854 Y122.888 E3.6892
G1 X96.507 Y118.541 E3.8341
G1 X96.507 Y119.178 E3.8491
G1 X100.218 Y122.888 E3.9728
G1 X99.582 Y122.888 E3.9878
G1 X96.507 Y119.814 E4.0903
G1 X96.507 Y120.45 E4.1053
G1 X98.945 Y122.888 E4.1866
G1 X98.309 Y122.888 E4.2016
G1 X96.507 Y121.087 E4.2616
G1 X96.507 Y121.723 E4.2766
G1 X97.672 Y122.888 E4.3155
G1 X97.036 Y122.888 E4.3305
G1 X96.507 Y122.36 E4.3481
G1 X96.507 Y122.888 E4.3605
G1 X96.636 Y122.888 E4.3636
G0 X97.036 Y122.888 F7156
G92 E0
G1 E-5 F6000
G0 Z0.848 F1000
; layer 3, Z = 0.348
G0 X96.125 Y123.145 F2100
