; G-Code generated by Simplify3D(TM) Version 2.1.0
; sty 17, 2023 at 10:18:58 PM
; Settings Summary
;   processName,Ender_3_second
;   applyToModels,uchwyt 1 do zegara analogowego,uchwyt 2 do zegara analogowego,uchwyt 3 do zegara analogowego
;   printMaterial,
;   printQuality,
;   extruderName,Primary Extruder
;   extruderToolheadNumber,0
;   extruderDiameter,0.35
;   extruderAutoWidth,0
;   extruderWidth,0.45
;   extrusionMultiplier,1.05
;   extruderUseRetract,1
;   extruderRetractionDistance,5
;   extruderExtraRestartDistance,0
;   extruderRetractionZLift,0.5
;   extruderRetractionSpeed,6000
;   extruderUseCoasting,1
;   extruderCoastingDistance,0.4
;   extruderUseWipe,0
;   extruderWipeDistance,0.2
;   primaryExtruder,0
;   layerHeight,0.12
;   topSolidLayers,3
;   bottomSolidLayers,3
;   perimeterOutlines,3
;   printPerimetersInsideOut,1
;   startPointOption,2
;   startPointOriginX,125
;   startPointOriginY,0
;   startPointOriginZ,255
;   sequentialIslands,1
;   spiralVaseMode,0
;   firstLayerHeightRatio,0.9
;   firstLayerUnderspeed,0.5
;   useRaft,0
;   raftLayers,2
;   raftOffset,2
;   raftInfill,65
;   disableRaftBaseLayers,0
;   useSkirt,1
;   skirtLayers,1
;   skirtOutlines,3
;   skirtOffset,0
;   infillExtruder,0
;   externalInfillPattern,Rectilinear
;   infillPercentage,100
;   outlineOverlapPercentage,15
;   minInfillLength,5
;   infillLayerInterval,1
;   randomInfillStartPoint,1
;   infillAngles,45,-45
;   generateSupport,1
;   supportExtruder,0
;   supportInfill,50
;   supportExtraInflation,0
;   supportLayerInterval,1
;   supportHorizontalPartOffset,0.25
;   supportUpperSeparationLayers,1
;   supportLowerSeparationLayers,1
;   supportGridSpacing,1
;   maxOverhangAngle,45
;   supportAngles,90
;   temperatureName,Primary Extruder,Heat Bed
;   temperatureNumber,0,1
;   temperatureSetpointCount,2,1
;   temperatureSetpointLayers,1,2,1
;   temperatureSetpointTemperatures,210,210,45
;   temperatureStabilizeAtStartup,1,1
;   temperatureHeatedBed,0,1
;   temperatureRelayBetweenLayers,0,0
;   temperatureRelayBetweenLoops,0,0
;   fanLayers,1,2
;   fanSpeeds,0,100
;   blipFanToFullPower,0
;   adjustSpeedForCooling,1
;   minSpeedLayerTime,15
;   minCoolingSpeedSlowdown,20
;   increaseFanForCooling,0
;   minFanLayerTime,6
;   maxCoolingFanSpeed,80
;   increaseFanForBridging,0
;   bridgingFanSpeed,80
;   use5D,1
;   relativeEdistances,0
;   allowEaxisZeroing,1
;   includeM10123,0
;   stickySupport,1
;   detectArcs,0
;   arcReplaceG2G3,0
;   arcRadialCompensation,1
;   gcodeXoffset,0
;   gcodeYoffset,0
;   gcodeZoffset,0
;   overrideMachineDefinition,1
;   machineTypeOverride,0
;   strokeXoverride,235
;   strokeYoverride,235
;   strokeZoverride,330
;   originOffsetXoverride,0
;   originOffsetYoverride,0
;   originOffsetZoverride,0
;   homeXdirOverride,-1
;   homeYdirOverride,-1
;   homeZdirOverride,-1
;   flipXoverride,1
;   flipYoverride,-1
;   flipZoverride,1
;   startingGcode,G28 ; home all axes
;   layerChangeGcode,
;   toolChangeGcode,
;   endingGcode,M104 S0 ; turn off extruder,M140 S0 ; turn off bed,M107 S0; turn off part cooling fans,G28 Y0; Home all axes,M84 ; disable motors
;   createX3G,0
;   celebration,0
;   celebrationSong,Take On Me
;   postProcessing,
;   defaultSpeed,9000
;   outlineUnderspeed,0.5
;   supportUnderspeed,0.8
;   rapidXYspeed,2100
;   rapidZspeed,1000
;   minBridgingArea,50
;   bridgingExtrusionMultiplier,1
;   bridgingSpeedMultiplier,1
;   filamentDiameter,1.75
;   useMinPrintHeight,0
;   minPrintHeight,0
;   useMaxPrintHeight,0
;   maxPrintHeight,0
;   overlapRemoval,0
;   overlapRemovalPercentage,0.3
;   useDiaphragm,0
;   diaphragmLayerInterval,20
;   robustSlicing,1
;   mergeAllIntoSolid,0
;   onlyRetractWhenCrossingOutline,0
;   retractBetweenLayers,1
;   useRetractionMinTravel,1
;   retractionMinTravel,2
;   useRetractionOozeRate,0
;   retractionOozeRate,100
;   onlyWipeOutlines,1
G90 ; use absolute coordinates
M82 ; absolute extrusion distances
G21 ; set units to millimeters
M106 S0
M140 S45
M190 S45
M104 S210 T0
M109 S210 T0
G28 ; home all axes
G92 E0
G1 E-5 F6000
G0 Z0.608 F1000
; layer 1, Z = 0.108
T0
; tool H0.12 W0.45
G0 X112.375 Y98.375 F2100
G0 Z0.108 F1000
G1 E0 F1800
G92 E0
G1 X122.625 Y98.375 E0.2416 F3792
G1 X122.625 Y108.625 E0.4832
G1 X112.375 Y108.625 E0.7249
G1 X112.375 Y98.775 E0.9571
G0 X112.375 Y98.375 F3792
G92 E0
G1 E-5 F6000
G0 Z0.608 F1000
G0 X112.375 Y112.375 F2100
G0 Z0.108 F1000
G1 E0 F6000
G92 E0
G1 X122.625 Y112.375 E0.2416 F3792
G1 X122.625 Y122.625 E0.4832
G1 X112.375 Y122.625 E0.7249
G1 X112.375 Y112.775 E0.9571
G0 X112.375 Y112.375 F3792
G92 E0
G1 E-5 F6000
G0 Z0.608 F1000
G0 X112.375 Y126.375 F2100
G0 Z0.108 F1000
G1 E0 F6000
G92 E0
G1 X122.625 Y126.375 E0.2416 F3792
G1 X122.625 Y136.625 E0.4832
G1 X112.375 Y136.625 E0.7249
G1 X112.375 Y126.775 E0.9571
G0 X112.375 Y126.375 F3792
G0 X112.825 Y126.825 F2100
G92 E0
G1 X122.175 Y126.825 E0.2204 F3792
G1 X122.175 Y136.175 E0.4408
G1 X112.825 Y136.175 E0.6612
G1 X112.825 Y127.225 E0.8722
G0 X112.825 Y126.825 F3792
G92 E0
G1 E-5 F6000
G0 Z0.608 F1000
G0 X112.825 Y122.175 F2100
G0 Z0.108 F1000
G1 E0 F6000
G92 E0
G1 X112.825 Y112.825 E0.2204 F3792
G1 X122.175 Y112.825 E0.4408
G1 X122.175 Y122.175 E0.6612
G1 X113.225 Y122.175 E0.8722
G0 X112.825 Y122.175 F3792
G92 E0
G1 E-5 F6000
G0 Z0.608 F1000
G0 X112.825 Y108.175 F2100
G0 Z0.108 F1000
G1 E0 F6000
G92 E0
G1 X112.825 Y98.825 E0.2204 F3792
G1 X122.175 Y98.825 E0.4408
G1 X122.175 Y108.175 E0.6612
G1 X113.225 Y108.175 E0.8722
G0 X112.825 Y108.175 F3792
G0 X113.275 Y107.725 F2100
G92 E0
G1 X113.275 Y99.275 E0.1992 F3792
G1 X121.725 Y99.275 E0.3984
G1 X121.725 Y107.725 E0.5976
G1 X113.675 Y107.725 E0.7873
G0 X113.275 Y107.725 F3792
G92 E0
G1 E-5 F6000
G0 Z0.608 F1000
G0 X113.275 Y113.275 F2100
G0 Z0.108 F1000
G1 E0 F6000
G92 E0
G1 X121.725 Y113.275 E0.1992 F3792
G1 X121.725 Y121.725 E0.3984
G1 X113.275 Y121.725 E0.5976
G1 X113.275 Y113.675 E0.7873
G0 X113.275 Y113.275 F3792
G92 E0
G1 E-5 F6000
G0 Z0.608 F1000
G0 X113.275 Y127.275 F2100
G0 Z0.108 F1000
G1 E0 F6000
G92 E0
G1 X121.725 Y127.275 E0.1992 F3792
G1 X121.725 Y135.725 E0.3984
G1 X113.275 Y135.725 E0.5976
G1 X113.275 Y127.675 E0.7873
G0 X113.275 Y127.275 F3792
G0 X114.625 Y128.625 F2100
G92 E0
G1 X120.375 Y128.625 E0.1355 F3160
G1 X120.375 Y134.375 E0.2711
G1 X114.625 Y134.375 E0.4066
G1 X114.625 Y129.025 E0.5328
G0 X114.625 Y128.625 F3160
G0 X115.915 Y129.557 F2100
G92 E0
G1 X115.542 Y129.938 E0.0126 F3160
G1 X115.312 Y130.28 E0.0223
G1 X115.102 Y130.771 E0.0349
G1 X115.004 Y131.295 E0.0475
G1 X115.004 Y131.707 E0.0572
G1 X115.098 Y132.211 E0.0692
G1 X115.247 Y132.595 E0.0789
G1 X115.528 Y133.048 E0.0915
G1 X115.902 Y133.429 E0.1041
G1 X116.24 Y133.665 E0.1138
G1 X116.726 Y133.885 E0.1264
G1 X117.249 Y133.992 E0.139
G1 X117.661 Y134 E0.1487
G1 X118.187 Y133.911 E0.1613
G1 X118.681 Y133.709 E0.1738
G1 X119.009 Y133.497 E0.1831
G1 X119.303 Y133.239 E0.1923
G1 X119.606 Y132.852 E0.2039
G1 X119.728 Y132.638 E0.2097
G1 X119.874 Y132.297 E0.2184
G1 X119.987 Y131.797 E0.2305
G1 X120.002 Y131.386 E0.2402
G1 X119.923 Y130.858 E0.2528
G1 X119.723 Y130.34 E0.2659
G1 X119.413 Y129.88 E0.2789
G1 X119.025 Y129.513 E0.2915
G1 X118.679 Y129.29 E0.3012
G1 X118.204 Y129.096 E0.3133
G1 X117.801 Y129.013 E0.323
G1 X117.289 Y129.004 E0.3351
G1 X116.883 Y129.073 E0.3448
G1 X116.382 Y129.256 E0.3574
G1 X116.252 Y129.34 E0.361
G0 X115.915 Y129.557 F3160
G92 E0
G1 E-5 F6000
G0 Z0.608 F1000
G0 X114.175 Y128.175 F2100
G0 Z0.108 F1000
G1 E0 F6000
G92 E0
G1 X120.825 Y128.175 E0.1568 F2528
G1 X120.825 Y134.825 E0.3135
G1 X114.175 Y134.825 E0.4703
G1 X114.175 Y128.575 E0.6176
G0 X114.175 Y128.175 F2528
G92 E0
G1 E-5 F6000
G0 Z0.608 F1000
G0 X116.202 Y129.908 F2100
G0 Z0.108 F1000
G1 E0 F6000
G92 E0
G1 X115.892 Y130.224 E0.0104 F2528
G1 X115.709 Y130.496 E0.0182
G1 X115.535 Y130.902 E0.0286
G1 X115.454 Y131.337 E0.039
G1 X115.454 Y131.665 E0.0467
G1 X115.533 Y132.087 E0.0569
G1 X115.652 Y132.393 E0.0646
G1 X115.884 Y132.769 E0.075
G1 X116.194 Y133.084 E0.0854
G1 X116.463 Y133.272 E0.0932
G1 X116.866 Y133.454 E0.1036
G1 X117.299 Y133.543 E0.114
G1 X117.627 Y133.549 E0.1217
G1 X118.063 Y133.475 E0.1322
G1 X118.472 Y133.308 E0.1426
G1 X118.737 Y133.137 E0.15
G1 X118.974 Y132.928 E0.1575
G1 X119.231 Y132.601 E0.1673
G1 X119.325 Y132.437 E0.1717
G1 X119.445 Y132.158 E0.1789
G1 X119.539 Y131.739 E0.189
G1 X119.551 Y131.411 E0.1967
G1 X119.486 Y130.974 E0.2072
G1 X119.321 Y130.55 E0.2179
G1 X119.068 Y130.172 E0.2286
G1 X118.746 Y129.869 E0.239
G1 X118.47 Y129.691 E0.2468
G1 X118.073 Y129.529 E0.2569
G1 X117.751 Y129.463 E0.2646
G1 X117.322 Y129.455 E0.2747
G1 X116.999 Y129.509 E0.2825
G1 X116.584 Y129.662 E0.2929
G1 X116.538 Y129.691 E0.2942
G0 X116.202 Y129.908 F2528
G92 E0
G1 E-5 F6000
G0 Z0.608 F1000
G0 X113.725 Y127.725 F2100
G0 Z0.108 F1000
G1 E0 F6000
G92 E0
G1 X121.275 Y127.725 E0.178 F1896
G1 X121.275 Y135.275 E0.356
G1 X113.725 Y135.275 E0.5339
G1 X113.725 Y128.125 E0.7025
G0 X113.725 Y127.725 F1896
G92 E0
G1 E-5 F6000
G0 Z0.608 F1000
G0 X116.488 Y130.259 F2100
G0 Z0.108 F1000
G1 E0 F6000
G92 E0
G1 X116.243 Y130.509 E0.0083 F1896
G1 X116.106 Y130.712 E0.014
G1 X115.968 Y131.034 E0.0223
G1 X115.904 Y131.378 E0.0305
G1 X115.904 Y131.623 E0.0363
G1 X115.968 Y131.963 E0.0445
G1 X116.056 Y132.191 E0.0502
G1 X116.241 Y132.489 E0.0585
G1 X116.486 Y132.739 E0.0667
G1 X116.687 Y132.879 E0.0725
G1 X117.006 Y133.023 E0.0808
G1 X117.349 Y133.094 E0.089
G1 X117.594 Y133.098 E0.0948
G1 X117.939 Y133.04 E0.103
G1 X118.263 Y132.907 E0.1113
G1 X118.465 Y132.777 E0.117
G1 X118.646 Y132.618 E0.1226
G1 X118.857 Y132.349 E0.1307
G1 X118.921 Y132.236 E0.1338
G1 X119.015 Y132.018 E0.1394
G1 X119.091 Y131.681 E0.1475
G1 X119.1 Y131.436 E0.1533
G1 X119.048 Y131.09 E0.1615
G1 X118.92 Y130.759 E0.1699
G1 X118.722 Y130.465 E0.1783
G1 X118.468 Y130.225 E0.1865
G1 X118.262 Y130.092 E0.1923
G1 X117.941 Y129.961 E0.2004
G1 X117.702 Y129.912 E0.2062
G1 X117.356 Y129.906 E0.2144
G1 X117.114 Y129.946 E0.2201
G1 X116.828 Y130.051 E0.2273
G0 X116.786 Y130.067 F1896
G0 X116.488 Y130.259 F1896
G0 X115.869 Y129.008 F2100
G92 E0
G1 X116.062 Y129.007 E0.0045 F3792
G1 X115.672 Y129.259 E0.0155
G1 X115.244 Y129.696 E0.0299
G1 X115.007 Y130.048 E0.0399
G1 X115.007 Y129.869 E0.0441
G1 X115.869 Y129.007 E0.0728
G1 X115.314 Y129.008 E0.0859
G0 X115.233 Y129.007 F3792
G0 X115.007 Y129.233 F3792
G92 E0
G1 E-5 F6000
G0 Z0.608 F1000
G0 X115.007 Y133.051 F2100
G0 Z0.108 F1000
G1 E0 F6000
G92 E0
G1 X115.052 Y133.006 E0.0015 F3792
G1 X115.226 Y133.286 E0.0093
G1 X115.316 Y133.378 E0.0123
G1 X115.007 Y133.687 E0.0226
G1 X115.007 Y133.993 E0.0298
G1 X115.339 Y133.993 E0.0376
G1 X115.632 Y133.699 E0.0474
G1 X115.654 Y133.722 E0.0481
G1 X115.799 Y133.824 E0.0523
G0 X116.002 Y133.965 F3792
G0 X115.975 Y133.993 F3792
G0 X116.041 Y133.993 F3792
G0 X116.002 Y133.965 F3792
G92 E0
G1 E-5 F6000
G0 Z0.608 F1000
G0 X119.157 Y133.992 F2100
G0 Z0.108 F1000
G1 E0 F6000
G92 E0
G1 X119.993 Y133.157 E0.0279 F3792
G1 X119.993 Y133.793 E0.0429
G1 X119.795 Y133.991 E0.0494
G0 X119.793 Y133.993 F3792
G0 X119.993 Y133.993 F3792
G0 X119.993 Y133.793 F3792
G92 E0
G1 E-5 F6000
G0 Z0.608 F1000
G0 X119.993 Y129.975 F2100
G0 Z0.108 F1000
G1 E0 F6000
G92 E0
G1 X119.993 Y130.056 E0.0019 F3792
G1 X119.96 Y130.008 E0.0033
G1 X119.993 Y129.975 E0.0044
G1 X119.993 Y129.339 E0.0194
G1 X119.703 Y129.628 E0.029
G1 X119.376 Y129.319 E0.0396
G1 X119.687 Y129.007 E0.05
G1 X119.393 Y129.008 E0.0569
G0 X119.051 Y129.007 F3792
G0 X119.01 Y129.048 F3792
G92 E0
G1 E-5 F6000
G0 Z0.608 F1000
G0 X120.375 Y120.375 F2100
G0 Z0.108 F1000
G1 E0 F6000
G92 E0
G1 X114.625 Y120.375 E0.1355 F3160
G1 X114.625 Y114.625 E0.2711
G1 X120.375 Y114.625 E0.4066
G1 X120.375 Y119.975 E0.5328
G0 X120.375 Y120.375 F3160
G92 E0
G1 E-5 F6000
G0 Z0.608 F1000
G0 X118.027 Y119.949 F2100
G0 Z0.108 F1000
G1 E0 F6000
G92 E0
G1 X118.515 Y119.79 E0.0121 F3160
G1 X118.876 Y119.593 E0.0218
G1 X119.29 Y119.255 E0.0344
G1 X119.606 Y118.852 E0.0465
G1 X119.728 Y118.638 E0.0523
G1 X119.874 Y118.297 E0.061
G1 X119.987 Y117.797 E0.0731
G1 X120.002 Y117.385 E0.0828
G1 X119.923 Y116.858 E0.0954
G1 X119.723 Y116.34 E0.1085
G1 X119.413 Y115.88 E0.1215
G1 X119.025 Y115.513 E0.1341
G1 X118.679 Y115.29 E0.1438
G1 X118.204 Y115.096 E0.1559
G1 X117.801 Y115.013 E0.1656
G1 X117.289 Y115.004 E0.1777
G1 X116.883 Y115.073 E0.1874
G1 X116.401 Y115.249 E0.1995
G1 X116.047 Y115.459 E0.2092
G1 X115.647 Y115.812 E0.2218
G1 X115.321 Y116.261 E0.2349
G1 X115.102 Y116.771 E0.2479
G1 X115.004 Y117.295 E0.2605
G1 X115.004 Y117.707 E0.2702
G1 X115.098 Y118.211 E0.2823
G1 X115.247 Y118.595 E0.292
G1 X115.528 Y119.048 E0.3046
G1 X115.902 Y119.429 E0.3172
G1 X116.223 Y119.653 E0.3264
G1 X116.573 Y119.827 E0.3356
G1 X117.086 Y119.973 E0.3482
G1 X117.619 Y120.002 E0.3608
G1 X117.631 Y120 E0.361
G0 X118.027 Y119.949 F3160
G92 E0
G1 E-5 F6000
G0 Z0.608 F1000
G0 X120.825 Y120.825 F2100
G0 Z0.108 F1000
G1 E0 F6000
G92 E0
G1 X114.175 Y120.825 E0.1568 F2528
G1 X114.175 Y114.175 E0.3135
G1 X120.825 Y114.175 E0.4703
G1 X120.825 Y120.425 E0.6176
G0 X120.825 Y120.825 F2528
G92 E0
G1 E-5 F6000
G0 Z0.608 F1000
G0 X117.928 Y119.508 F2100
G0 Z0.108 F1000
G1 E0 F6000
G92 E0
G1 X118.336 Y119.375 E0.0101 F2528
G1 X118.624 Y119.218 E0.0179
G1 X118.966 Y118.938 E0.0283
G1 X119.231 Y118.6 E0.0384
G1 X119.325 Y118.437 E0.0428
G1 X119.445 Y118.158 E0.05
G1 X119.539 Y117.739 E0.0601
G1 X119.551 Y117.411 E0.0679
G1 X119.486 Y116.974 E0.0783
G1 X119.321 Y116.55 E0.089
G1 X119.068 Y116.172 E0.0997
G1 X118.746 Y115.869 E0.1101
G1 X118.47 Y115.691 E0.1179
G1 X118.073 Y115.529 E0.128
G1 X117.751 Y115.463 E0.1357
G1 X117.322 Y115.455 E0.1458
G1 X116.999 Y115.509 E0.1536
G1 X116.595 Y115.657 E0.1637
G1 X116.313 Y115.825 E0.1714
G1 X115.981 Y116.117 E0.1819
G1 X115.714 Y116.485 E0.1926
G1 X115.535 Y116.902 E0.2033
G1 X115.454 Y117.337 E0.2137
G1 X115.454 Y117.665 E0.2214
G1 X115.533 Y118.087 E0.2316
G1 X115.652 Y118.393 E0.2393
G1 X115.884 Y118.769 E0.2497
G1 X116.194 Y119.084 E0.2601
G1 X116.453 Y119.265 E0.2676
G1 X116.736 Y119.405 E0.275
G1 X117.161 Y119.526 E0.2854
G1 X117.53 Y119.546 E0.2942
G0 X117.602 Y119.55 F2528
G0 X117.928 Y119.508 F2528
G92 E0
G1 E-5 F6000
G0 Z0.608 F1000
G0 X121.275 Y121.275 F2100
G0 Z0.108 F1000
G1 E0 F6000
G92 E0
G1 X113.725 Y121.275 E0.178 F1896
G1 X113.725 Y113.725 E0.356
G1 X121.275 Y113.725 E0.5339
G1 X121.275 Y120.875 E0.7025
G0 X121.275 Y121.275 F1896
G92 E0
G1 E-5 F6000
G0 Z0.608 F1000
G0 X117.828 Y119.067 F2100
G0 Z0.108 F1000
G1 E0 F6000
G92 E0
G1 X118.157 Y118.96 E0.0082 F1896
G1 X118.372 Y118.843 E0.0139
G1 X118.643 Y118.621 E0.0222
G1 X118.857 Y118.349 E0.0303
G1 X118.921 Y118.236 E0.0334
G1 X119.015 Y118.018 E0.039
G1 X119.091 Y117.681 E0.0471
G1 X119.1 Y117.436 E0.0529
G1 X119.048 Y117.09 E0.0612
G1 X118.92 Y116.759 E0.0695
G1 X118.722 Y116.465 E0.0779
G1 X118.468 Y116.225 E0.0861
G1 X118.262 Y116.092 E0.0919
G1 X117.941 Y115.961 E0.1001
G1 X117.702 Y115.912 E0.1058
G1 X117.356 Y115.906 E0.114
G1 X117.114 Y115.946 E0.1198
G1 X116.79 Y116.065 E0.1279
G1 X116.579 Y116.19 E0.1337
G1 X116.316 Y116.422 E0.1419
G1 X116.108 Y116.708 E0.1503
G1 X115.968 Y117.034 E0.1587
G1 X115.904 Y117.378 E0.1669
G1 X115.904 Y117.623 E0.1727
G1 X115.968 Y117.963 E0.1808
G1 X116.056 Y118.191 E0.1866
G1 X116.241 Y118.489 E0.1949
G1 X116.486 Y118.739 E0.2031
G1 X116.683 Y118.877 E0.2088
G1 X116.899 Y118.984 E0.2145
G1 X117.236 Y119.079 E0.2227
G1 X117.43 Y119.09 E0.2273
